X:515
T:Gan Ainm
R:Reel
S:Maire O'Keeffe, Kerry (fiddle)
D:Session tape - Milltown Malbay 1991
H:Hard to make out at times
Z:Bernie Stocks
M:4/4
K:Bm
~B3d fBdf | agfg efdc | ~B2FB dfaf | dAcA B4 :| ad(3.d.d.d Adfd | g2fg eAcA |
ad(3.d.d.d Adfd | g2fg e2fg | a2fd Adfd | g2fg eAcA | ad(3.d.d.d Adfd | g2fg e2fg :|
